X:699
T:Mr Young's Delight
C:Purcell, 1696
S:Colin Hume's website,  colinhume.com  - chords can also be printed below the stave.
Q:1/2=112
M:2/2
R:Reel
L:1/8
K:F
P:A
c2 | "F"A2F2 F2G2 | "Dm"A4 d4 | "F"c3d "Dm"cdcA | "Gm"x4 "C7"x4 & B2G4B2 |\
"F"A2 F4 G2 | "Dm"A4 d4 | "Bb"f3g fgag | "F"f2 c4 f2 |
"Bb"d3c defd | "F"cdcB Acfc | "Bb"defd "F/A"cdcA | "Gm"x4 "C7"x4 & B2G4 B2 |\
"F"A2 F4 G2 | "Dm"A4 d4 | "F"c3d "Dm"cd cA | "Gm"x4 "C7"x4 & B2 G4 ag |
"F"fgaf "C7/E"gabg | "Dm"abga "/C"fgef | "Bb"defd "G7"gfec | "C"G2 c4 BA |\
"Bb"Bdfd "F/A"Acfc | "Gm"Bdfd "F"Acfc | "Bb"dcBA "C7"GAGF | "F"F6 |]

